src/images/single-assets/moSOLID.svg

<svg width="100" height="100" viewBox="0 0 100 100" fill="none" xmlns="http://www.w3.org/2000/svg">
<path d="M100 50C100 22.3858 77.6142 0 50 0C22.3858 0 0 22.3858 0 50C0 77.6142 22.3858 100 50 100C77.6142 100 100 77.6142 100 50Z" fill="#0C0C1F"/>
<path fill-rule="evenodd" clip-rule="evenodd" d="M60.46 30.6771C60.7681 30.7776 61.0534 30.9381 61.2995 31.1496C61.4128 31.2506 61.5038 31.3742 61.567 31.5124C61.6302 31.6506 61.6641 31.8005 61.6665 31.9525L61.6359 35.9C61.5864 41.5904 61.539 47.2866 61.4939 52.9888L61.4087 63.6933C61.4024 63.8463 61.3648 63.9963 61.2983 64.134C61.2318 64.2717 61.1378 64.3944 61.0221 64.4941C60.569 64.8798 59.991 65.0855 59.3971 65.0729H59.2377L40.4343 63.9632C39.1304 63.893 38.3331 63.3536 38.3331 62.5772L38.3463 58.8905C38.3594 53.5817 38.3746 48.2707 38.3921 42.9575L38.4227 32.9414C38.4227 32.2923 38.9185 31.8253 39.7594 31.6454L39.8053 31.5994H39.9996C40.1737 31.568 40.3495 31.5473 40.526 31.5378L59.5041 30.5641C59.827 30.5382 60.1519 30.5766 60.46 30.6771ZM57.3134 42.6483L57.3855 33.4373L42.6862 34.2069V36.6193L42.614 61.338L57.154 62.1955L57.1714 59.737C57.221 54.0466 57.2683 48.3504 57.3134 42.6483Z" fill="#F1F1FD"/>
<path fill-rule="evenodd" clip-rule="evenodd" d="M60.9999 68.876C61.1937 69.0961 61.3422 69.3524 61.437 69.6304C61.576 70.1299 61.5172 70.6643 61.273 71.1213C61.0287 71.5783 60.6179 71.9226 60.1265 72.0824C59.8463 72.1825 59.5502 72.23 59.2528 72.2227C59.1643 72.2227 59.0768 72.2181 58.9917 72.2136C58.911 72.2094 58.8325 72.2053 58.757 72.2053H58.6478C58.0454 72.1738 57.4589 72.1119 56.8617 72.049L56.7825 72.0406C53.3656 71.6711 49.9095 71.1621 46.5681 70.6699L46.5389 70.6656L46.2484 70.6239C43.9507 70.2839 41.9085 69.9749 40.0192 69.681C39.7891 69.6424 39.5694 69.5561 39.3742 69.4277C39.1791 69.2994 39.0127 69.1318 38.8856 68.9354C38.7226 68.6888 38.6101 68.4119 38.5547 68.1213C38.4992 67.8306 38.5018 67.5317 38.5623 67.2421C38.6991 66.7421 39.0227 66.3145 39.4658 66.0481C39.9089 65.7817 40.4373 65.6971 40.9409 65.8122L43.184 66.1587C44.694 66.3882 46.2032 66.6143 47.7117 66.8365C48.5956 66.9666 49.4743 67.0937 50.348 67.218L51.7415 67.4132L52.8816 67.5711H52.9493L53.0455 67.5931C54.2393 67.7932 55.4814 67.9195 56.6894 68.0422L56.7585 68.0493L57.3111 68.1041C57.8157 68.1546 58.3071 68.2027 58.8029 68.2246L59.1021 68.2356C59.5042 68.1242 59.9328 68.164 60.3077 68.3475C60.5708 68.4761 60.8061 68.6558 60.9999 68.876ZM59.141 68.8674C59.1147 68.8755 59.0879 68.8814 59.0606 68.8848C59.0787 68.8848 59.1192 68.8788 59.192 68.8681C59.2072 68.8658 59.2238 68.8634 59.2419 68.8607L59.397 68.8388H59.3255L59.2483 68.8496L59.243 68.8504C59.2004 68.8596 59.1668 68.8647 59.141 68.8674Z" fill="#F1F1FD"/>
</svg>

<svg xmlns="http://www.w3.org/2000/svg" width="100" height="100" fill="none"><path fill="#0C0C1F" d="M100 50c0-27.614-22.386-50-50-50S0 22.386 0 50s22.386 50 50 50 50-22.386 50-50"/><path fill="#F1F1FD" fill-rule="evenodd" d="M60.46 30.677c.308.1.593.261.84.473a1.1 1.1 0 0 1 .367.803l-.031 3.947q-.075 8.535-.142 17.089l-.085 10.704a1.12 1.12 0 0 1-.387.801 2.43 2.43 0 0 1-1.625.579h-.16l-18.803-1.11c-1.304-.07-2.1-.61-2.1-1.386l.012-3.686q.02-7.964.046-15.933l.03-10.017c0-.649.497-1.116 1.337-1.296l.046-.046H40q.261-.047.526-.061l18.978-.974a2.5 2.5 0 0 1 .956.113m-3.147 11.971.072-9.21-14.699.769v2.412l-.072 24.719 14.54.858.017-2.459q.075-8.535.142-17.089M61 68.876c.194.22.342.476.437.754.139.5.08 1.034-.164 1.491a2 2 0 0 1-1.147.961c-.28.1-.576.148-.873.14a5 5 0 0 1-.261-.008q-.122-.008-.235-.009h-.11c-.602-.031-1.188-.093-1.785-.156l-.08-.008c-3.416-.37-6.872-.879-10.214-1.371l-.03-.004-.29-.042c-2.297-.34-4.34-.65-6.229-.943a1.68 1.68 0 0 1-1.133-.746 2.24 2.24 0 0 1-.324-1.693c.137-.5.46-.928.904-1.194a2 2 0 0 1 1.475-.236l2.243.347q2.266.344 4.528.677 1.325.195 2.636.382l1.394.195 1.14.158h.067l.096.022c1.194.2 2.436.326 3.644.45l.07.006.552.055c.505.05.996.099 1.492.12l.3.012c.401-.112.83-.072 1.205.111.263.13.498.309.692.529m-1.859-.009a1 1 0 0 1-.08.018c.018 0 .058-.006.131-.017l.05-.007.155-.022h-.072l-.077.01-.005.001a1 1 0 0 1-.102.017" clip-rule="evenodd"/></svg>
